X: 192
T: Under the Willow
B: australian dance tunes
M:3/4
L:1/8
R: Waltz
Q: 1/4=100
K:G
V:1 
B2 G2 G2|B2 G2 GB|g2 f2 (3efe|d4 c2|B2 d>B c2|B2 G4|G2 c2 B2|A4 A>c|!
B2 G2 G2|B2 G2 Gd|g2 f2 (3efe|d4 c2|B2 d>B c2|B2 G4|A2 F2 A2|G4 d2|!
g2 d2 g2|f4 (3efe|d2 g>d e2|d4 c2|B2 D2 D2|B2 D2 G2|B2 c2 B2|A4 e>f|!
g2 d2 g2|f4 (3efe|d2 g>d e2|d4 c2|B2 G2 G2|c2 F2 A2| G6-|G6||
% abcbook-tune_id 62a0785041c19f61d7b85fd3


% abcbook-boost 0
% abcbook-tablature 
% abcbook-transpose 
% abcbook-lastupdated 1654683750269
% abcbook-soundfonts 
% abcbook-repeats 1


